X:515
T: Bill O'Keeffe's #2
S: "Johnny O'Leary of Sliabh Luachra" (#163)
Z: B.Black
L: 1/8
M: 4/4
R: reel
K: Bm
dBBA BcdB|AFED A2-AB|dBBA Bcde|fbba fe e2|
dBBA BcdB|AFED A2 (3B=c^c|d2-dB cBAc|B2-BA B2 fg :|
azab afef|afef a2 f/g/a|b2-ba baf/g/a|bafa bc'ba|
azab afef|afef a2 f/g/a|bafe dfed|1 B2-BA B2 e/f/g :|2\
B2 BA B2-Bc||
